FINK
CUT[VIER ELEMENTE INNIG GESELLT]
REG[Europa, Mitteleuropa, Deutschland]
KEY[F0749  16  F 3/8]
MEL[  1_1_1_  3_.21_
    5_.654  3__0_
    2_34#56  7_.65_
    765_4#_  5__0_
    6_5432  5_.31_
    321_-7_  1__0_ //] >>
FCT[Geselligkeits -, Trink - Lied]
